X: 1946
T: Uncle Dave's Schottische
B: australian traditional tunes wiki
M:4/4
L:1/8
R: Schottische
Q: 1/4=100
K:D
V:1 
B2|"D"A2F>G A>d f>d|"G"B2G>A "Em"B>e g>e|"A7"c>B c>e a>g f>e|"D"d>c d>ef2a2|
"D"A2F>G A>d f>d|"G"B2G>A "Em"B>e g>e|"A7"c>B c>e a>g f>e|"D"d2((3ABc)d2d>e||
"D"f2f>d f>a f>d|"G"g2g>f g>b g>e|"D"f2f>d f>a f>d|"E7"((3efe) ((3dcB) "A7"A2a>g|
"D"f2f>d f>a f>d|"G"g2g>f g>b g>e|"A7"c>B c>e a>g f>e|"D"d2 ((3ABc)d4||
% abcbook-tune_id 6342d5bea8200ce02a61d008


% abcbook-boost 0
% abcbook-tablature 
% abcbook-transpose 
% abcbook-lastupdated 1665324489521
% abcbook-soundfonts 
% abcbook-repeats 1
% NFF Book 2017

